X:1
T:Daphne
C:John Playford, The English Dancing Master, 1651
C:arr. Jay Ter Louw. Matches Pile 2018
M:6/4
L:1/8
K:F major
D2 | "Dm"F4G2 A4d2 | "A"^c3de2 "Dm"d4AB | "F"c2A2F2 "C"G2E2C2 |  [1 "Dm"D2F2E2 D4 :|]  [2 "Dm"D2  F2E2D6 ::
"Dm"f4f2"C"e4e2 | "Bb"d3ed2"A"^c2 A4 | "F"=c3BA2"C"G4F2 | "F"F2 E3FF6 :|\
"F"c2c2d2 c2A2F2 | 
"F"c3def "C"g2e2c2 | "Dm"A3GF2 "C"E4D2 | "Bb"d2d2c2 "Dm"d2A2A2 | "F"c3BA2 "Gm"G2D2F2 | "C"E3DE2"Dm"D6 |]

